resources/svg/projects/Minesweeper.svg

<svg xmlns="http://www.w3.org/2000/svg" viewBox="0 0 512 512" style="fill: #56dcfc;"><!--! Font Awesome Pro 6.1.1 by @fontawesome - https://fontawesome.com License - https://fontawesome.com/license (Commercial License) Copyright 2022 Fonticons, Inc. --><path d="M440.8 4.994C441.9 1.99 444.8 0 448 0C451.2 0 454.1 1.99 455.2 4.994L469.3 42.67L507 56.79C510 57.92 512 60.79 512 64C512 67.21 510 70.08 507 71.21L469.3 85.33L455.2 123C454.1 126 451.2 128 448 128C444.8 128 441.9 126 440.8 123L426.7 85.33L388.1 71.21C385.1 70.08 384 67.21 384 64C384 60.79 385.1 57.92 388.1 56.79L426.7 42.67L440.8 4.994zM289.4 97.37C301.9 84.88 322.1 84.88 334.6 97.37L363.3 126.1L380.7 108.7C386.9 102.4 397.1 102.4 403.3 108.7C409.6 114.9 409.6 125.1 403.3 131.3L385.9 148.7L414.6 177.4C427.1 189.9 427.1 210.1 414.6 222.6L403.8 233.5C411.7 255.5 416 279.3 416 304C416 418.9 322.9 512 208 512C93.12 512 0 418.9 0 304C0 189.1 93.12 96 208 96C232.7 96 256.5 100.3 278.5 108.3L289.4 97.37zM95.1 296C95.1 238.6 142.6 192 199.1 192H207.1C216.8 192 223.1 184.8 223.1 176C223.1 167.2 216.8 160 207.1 160H199.1C124.9 160 63.1 220.9 63.1 296V304C63.1 312.8 71.16 320 79.1 320C88.84 320 95.1 312.8 95.1 304V296z"/></svg>

<?xml version="1.0" encoding="utf-8"?>
<!-- Generator: Adobe Illustrator 25.4.0, SVG Export Plug-In . SVG Version: 6.00 Build 0)  -->
<svg version="1.1" id="Calque_1" xmlns="http://www.w3.org/2000/svg" xmlns:xlink="http://www.w3.org/1999/xlink" x="0px" y="0px"
	 viewBox="0 0 512 512" style="enable-background:new 0 0 512 512;" xml:space="preserve">
<style type="text/css">
	.st0{fill:#56DCFC;}
</style>
<path class="st0" d="M440.8,5c1.1-3,4-5,7.2-5s6.1,2,7.2,5l14.1,37.7L507,56.8c3,1.1,5,4,5,7.2s-2,6.1-5,7.2l-37.7,14.1L455.2,123
	c-1.1,3-4,5-7.2,5s-6.1-2-7.2-5l-14.1-37.7l-38.6-14.1c-3-1.1-4.1-4-4.1-7.2s1.1-6.1,4.1-7.2l38.6-14.1L440.8,5z M289.4,97.4
	c12.5-12.5,32.7-12.5,45.2,0l28.7,28.7l17.4-17.4c6.2-6.3,16.4-6.3,22.6,0c6.3,6.2,6.3,16.4,0,22.6l-17.4,17.4l28.7,28.7
	c12.5,12.5,12.5,32.7,0,45.2l-10.8,10.9c7.9,22,12.2,45.8,12.2,70.5c0,114.9-93.1,208-208,208C93.1,512,0,418.9,0,304
	S93.1,96,208,96c24.7,0,48.5,4.3,70.5,12.3L289.4,97.4z M95.1,296c0-57.4,47.5-104,104-104h8c9.7,0,16-7.2,16-16s-6.3-16-16-16h-8
	c-74.2,0-136,60.9-136,136v8c0,8.8,8.1,16,16,16c9.7,0,16-7.2,16-16V296z"/>
</svg>
